X: 69
T:Come Dance and Sing
% Nottingham Music Database
P:AABA last time only
S:FTB 2, via EF
M:4/4
L:1/4
K:D
A2/3B2/3c2/3|"D"dc/2d/2 "A7"ed/2e/2|"D"fd d/2e/2d/2c/2|"G"Be "E7"e/2f/2e/2d/2|\
"A7"cA AB/2c/2|
"D"dc/2d/2 "A/c+"ed/2e/2|"Bm"fd d/2e/2d/2c/2|"Em"Be "A7"d/2c/2B/2c/2|"D"dD D:||:
A/2G/2|"D"FA "A7"A/2B/2A/2G/2|"D"FA "A7"AA/2G/2|"D"FA df|\
"E7"e/2d/2c/2B/2 "A7"AA/2G/2|
"D"FA "A7"A/2B/2A/2G/2|"D"FA "A7"AB/2c/2|"D"dd f/2e/2f/2g/2|"A7"aA A:|


